X: 44
T:Larry O'Gaff
M:6/8
L:1/8
R:jig
Z:1997 by John Chambers <jc@eddie.mit.edu> http://eddie.mit.edu/~jc/music
Z:bc/
K:G
|"G"{def}g2G BAG|ded dBG|"C"cec "G"BdB|"D7"ABc def |!
"G"g2G BAG|ded dBG|"C"cec "G"BdB|"D7"AGA "G"G2:|!
|:d|"G"dgg gfg|gfg  gfe|"D" daa aga|aga "G"b2a |!
"G"gba "C"gfe|"G"dge dBG|"C"cec "G"BdB|"D7"AGA "G"G2:|!
